src/svgs/arrow-right.svg

<svg fill="none" height="10" viewBox="0 0 14 10" width="14" xmlns="http://www.w3.org/2000/svg"><path d="m8.9835.140979c-.18797-.1879721-.4839-.1879721-.67187 0-.18162.181622-.18162.483902 0 .665101l3.40677 3.40679h-11.241926c-.262066 0-.47713307.20829-.47713307.47035s.21506707.47713.47713307.47713h11.241926l-3.40677 3.40045c-.18162.18793-.18162.49067 0 .67187.18797.18793.4839.18793.67187 0l4.2133-4.2133c.1816-.18162.1816-.4839 0-.6651z" fill="#fff"/></svg>

<svg width="14" height="10" viewBox="0 0 14 10" fill="none" xmlns="http://www.w3.org/2000/svg">
<path d="M8.9835 0.140979C8.79553 -0.0469931 8.4996 -0.0469931 8.31163 0.140979C8.13001 0.322601 8.13001 0.624881 8.31163 0.80608L11.7184 4.21287H0.476474C0.214408 4.21287 -0.000659068 4.42116 -0.000659068 4.68322C-0.000659068 4.94528 0.214408 5.16035 0.476474 5.16035H11.7184L8.31163 8.5608C8.13001 8.74873 8.13001 9.05147 8.31163 9.23267C8.4996 9.4206 8.79553 9.4206 8.9835 9.23267L13.1968 5.01937C13.3784 4.83775 13.3784 4.53547 13.1968 4.35427L8.9835 0.140979Z" fill="white"/>
</svg>
